X:134
T:Johnny Allen's
R:Reel
D:Seamus Creagh/Aidan Coffey
S:Mark Boronkay
Z:Transcription, chords:Mike Long
M:C|
L:1/8
K:D
"D"A2AB "A"AGFE|"C"D=ccB c2Bc|"D"A2AB "A"AGFE|"G"DGGF G2FG|\
"D"A2AB "A"AGFE|"G/D"Ddde f3g|
"D"af (3(gfe) "A"fdec|"C"d=cAF "G"G2FG:|\
|:"D"A3g "A"fdec|"D"Ad~d2 Ad~d2|"D"A3g "A"fdec|
"C"d=cAF "G"G2FG|\
"D"A3g "A"fdec|"D"Addc defg|"D"af (3(gfe) "A"fdec|"C"d=cAF "G"G2FG:|
